packages/core/src/svgs/tokens/branded/SEI.svg

<svg width="24" height="24" viewBox="0 0 24 24" fill="none" xmlns="http://www.w3.org/2000/svg">
<path d="M20.4962 17.2494C21.586 15.5005 22.1053 13.4562 21.9823 11.3993C21.8591 9.34229 21.0997 7.37449 19.8089 5.76814C19.3093 5.89308 18.9907 6.17416 18.4785 6.61768C18.4348 6.65515 18.3848 6.69264 18.3411 6.7426C17.5611 7.50959 16.5116 7.94019 15.4177 7.94195C14.7492 7.94195 14.2308 7.81702 13.781 7.59839C13.3937 7.39849 13.1065 7.13614 12.9127 6.96123L12.869 6.91751C12.6629 6.73011 12.5317 6.62391 12.3443 6.54272C12.0264 6.41864 11.6858 6.36328 11.3449 6.3803C10.6327 6.3803 9.89565 6.71762 9.20857 7.24233C8.64575 7.67452 8.15276 8.19069 7.74686 8.77275L6.18521 7.73581C6.54751 7.19235 7.20964 6.40528 8.06544 5.75565C8.99319 4.99289 10.1447 4.55418 11.3449 4.50633C12.0694 4.50633 12.6379 4.61877 13.1127 4.83115C13.5874 5.04354 13.9059 5.33088 14.1308 5.53076C14.3682 5.74939 14.4806 5.8431 14.6306 5.9243C14.768 5.99302 14.9867 6.06798 15.4177 6.06798C16.1673 6.06798 16.5795 5.78063 17.1042 5.31839L17.2667 5.18095C17.6114 4.85928 17.9907 4.57648 18.3973 4.33767C17.0157 3.18136 15.3477 2.41923 13.5691 2.13164C11.7906 1.84404 9.96736 2.04163 8.29172 2.70357C6.61608 3.36551 5.15007 4.46729 4.04825 5.89274C2.94642 7.3182 2.24959 9.01452 2.03124 10.8029C2.60352 10.5653 3.21684 10.4421 3.8365 10.4405C4.82275 10.4212 5.78376 10.7532 6.54751 11.3776L6.5725 11.3963C6.8536 11.5962 7.04723 11.7337 7.2846 11.8335C7.50323 11.9272 7.78433 12.0023 8.2216 12.0023C8.95245 12.0023 9.4272 11.6649 10.1455 11.109L10.1892 11.0715C10.8764 10.5343 11.8071 9.81599 13.2251 9.81599C14.3932 9.81599 15.5551 10.4219 16.4483 11.0341C17.2425 11.585 17.9717 12.2241 18.6222 12.9392L17.2167 14.1886C16.8418 13.7637 16.161 13.1141 15.3802 12.5769C14.5681 12.021 13.8061 11.6899 13.2251 11.6899C12.488 11.6899 12.0133 12.0272 11.2949 12.5831L11.2512 12.6206C10.5641 13.1578 9.63329 13.8763 8.21534 13.8763C7.54696 13.8763 7.00976 13.7513 6.54751 13.5576C6.11025 13.3702 5.76668 13.1204 5.49809 12.9329L5.47934 12.9205C5.25872 12.749 5.01991 12.6024 4.76723 12.4833C4.54235 12.3896 4.26127 12.3145 3.83024 12.3145C3.1119 12.3145 2.48099 12.6082 2 12.9517C2.18522 14.9228 2.95527 16.7935 4.21129 18.3238C4.54235 17.974 4.93589 17.6054 5.36691 17.2618C6.19145 16.5935 7.26586 15.9188 8.3965 15.7627C9.11485 15.6565 9.72074 15.7627 10.2517 15.9875C10.7576 16.2124 11.1512 16.5373 11.4511 16.7996L11.5198 16.862C12.1319 17.3867 12.4068 17.6242 12.9127 17.6242C13.4937 17.6242 13.8935 17.3555 14.4744 16.8934L14.5869 16.7996C15.1179 16.381 15.8987 15.7502 16.9855 15.7502C17.4665 15.7502 17.9538 15.8877 18.3785 16.0563C18.8158 16.2249 19.253 16.4624 19.6654 16.7059C19.9526 16.8808 20.2401 17.0683 20.5024 17.2555L20.4962 17.2494ZM19.3593 18.7485C19.1469 18.5987 18.922 18.4487 18.6846 18.3112C18.3348 18.0989 17.9975 17.9177 17.6852 17.7991C17.4622 17.6994 17.2231 17.6402 16.9793 17.6242C16.5857 17.6242 16.3047 17.8303 15.6488 18.355C15.0553 18.8297 14.2059 19.4981 12.9127 19.4981C11.6759 19.4981 10.8827 18.7985 10.3641 18.3363L10.2205 18.2114C9.93938 17.9677 9.72074 17.8053 9.49585 17.7116C9.23276 17.5968 8.94163 17.5621 8.65886 17.6116C8.0342 17.7053 7.2846 18.1239 6.54126 18.7173C6.16647 19.0297 5.81666 19.3544 5.52932 19.6544C7.33291 21.1698 9.61376 21.9994 11.9696 21.9968C13.3595 21.999 14.7345 21.7112 16.007 21.1518C17.2794 20.5926 18.4211 19.774 19.3593 18.7485Z" fill="url(#paint0_linear_364_3212)"/>
<defs>
<linearGradient id="paint0_linear_364_3212" x1="11.9696" y1="2.00769" x2="11.9696" y2="21.9968" gradientUnits="userSpaceOnUse">
<stop stop-color="#90305C"/>
<stop offset="1" stop-color="#DF3C41"/>
</linearGradient>
</defs>
</svg>

<svg xmlns="http://www.w3.org/2000/svg" width="24" height="24" fill="none" viewBox="0 0 24 24">
    <path fill="url(#SEI__a)" d="M20.496 17.25a9.94 9.94 0 0 0-.687-11.482c-.5.125-.818.406-1.33.85-.044.037-.094.075-.138.125a4.18 4.18 0 0 1-2.923 1.199c-.669 0-1.187-.125-1.637-.344-.387-.2-.675-.462-.868-.637l-.044-.043c-.206-.188-.337-.294-.525-.375a2.4 2.4 0 0 0-1-.163c-.711 0-1.448.338-2.135.862a7 7 0 0 0-1.462 1.53L6.185 7.737a8.7 8.7 0 0 1 1.88-1.98 5.5 5.5 0 0 1 3.28-1.25c.724 0 1.293.113 1.768.325.474.213.793.5 1.018.7.237.218.35.312.5.393.137.069.356.144.787.144.75 0 1.162-.287 1.686-.75l.163-.137a6.4 6.4 0 0 1 1.13-.843 10.013 10.013 0 0 0-16.366 6.465 4.7 4.7 0 0 1 1.805-.363 4.16 4.16 0 0 1 2.712.938l.024.018c.282.2.475.338.713.438.218.093.5.168.937.168.73 0 1.205-.337 1.924-.893l.043-.037c.687-.538 1.618-1.256 3.036-1.256 1.168 0 2.33.606 3.223 1.218.794.551 1.524 1.19 2.174 1.905l-1.405 1.25a10.7 10.7 0 0 0-1.837-1.612c-.812-.556-1.574-.887-2.155-.887-.737 0-1.212.337-1.93.893l-.044.038c-.687.537-1.618 1.255-3.036 1.255a4.2 4.2 0 0 1-1.667-.318c-.438-.188-.781-.438-1.05-.625l-.019-.012a3.8 3.8 0 0 0-.712-.438c-.225-.093-.506-.168-.937-.168-.718 0-1.349.293-1.83.637a9.93 9.93 0 0 0 2.211 5.372c.331-.35.725-.719 1.156-1.062.824-.669 1.899-1.343 3.03-1.5a3.37 3.37 0 0 1 1.855.226c.506.224.9.55 1.2.812l.068.062c.612.525.887.762 1.393.762.58 0 .98-.268 1.561-.73l.113-.094c.53-.419 1.312-1.05 2.398-1.05.482 0 .969.138 1.393.306.438.169.875.406 1.287.65.288.175.575.362.837.55zm-1.137 1.499c-.212-.15-.437-.3-.674-.438a6.3 6.3 0 0 0-1-.512 2 2 0 0 0-.706-.175c-.393 0-.674.206-1.33.731-.594.475-1.443 1.143-2.736 1.143-1.237 0-2.03-.7-2.549-1.162l-.144-.125c-.28-.243-.5-.406-.724-.5a1.46 1.46 0 0 0-.837-.1c-.625.094-1.374.513-2.118 1.106a13 13 0 0 0-1.012.937 10 10 0 0 0 6.44 2.343 10 10 0 0 0 7.39-3.248"/>
    <defs>
        <linearGradient id="SEI__a" x1="11.97" x2="11.97" y1="2.008" y2="21.997" gradientUnits="userSpaceOnUse">
            <stop stop-color="#90305C"/>
            <stop offset="1" stop-color="#DF3C41"/>
        </linearGradient>
    </defs>
</svg>
